X:1
T:Title
%%score { ( 1 3 ) | 2 }
L:1/8
M:6/8
K:Bb
V:1 treble nm="Grand Piano"
V:3 treble 
V:2 bass 
V:1
 z3 z2[Q:1/4=100] [DF] | [DF]2 [DG] [DG]2 [DB] | [EA]2 [EG] [EF]2 [Ge] | d2 c A2 G | %4
[M:5/8] [DF]-[DF]- [DF]3 |[M:1/8] [DG] |[M:3/4] [EG]2 [EF] [Fc]2 [EG] | [DG]2 [B,DF] [DGB]2 [DFB] | %8
 [=EB]2 [EG] [Ec]2 [Ed] | c4- c_d | [Fd]3 [Ec] [DB][DG] | B3 A3 | FA B c2 F | d6 | [Ge]3 [B,EG]3 | %15
[M:15/16] [DF]3 [Fd]3/2- [Fd]3 |[M:3/4] [=Ec][EG] [EB] [Fd]2 [_Ec] |[M:5/8] [DB]-[DB]- [DB]3 |] %18
V:2
 z3 z2 [B,,B,] | [B,,B,]2 [B,,B,] [B,,B,]2 [B,,F,] | [C,F,]2 [C,G,] [F,A,]2 [F,A,] | %3
 [F,A,F]2 [F,A,E] [F,CE]2 [F,A,E] |[M:5/8] [B,,B,]-[B,,B,]- [B,,B,]3 |[M:1/8] [B,,F,] | %6
[M:3/4] [C,F,]2 [C,F,] [A,,F,]2 [A,,F,] | [B,,F,]2 B,, G,,2 G,, | [C,C]2 [C,C] [C,B,]2 [C,B,] | %9
 [F,A,E]4- [F,A,E]=E | [B,,B,]3 [B,,F,] [B,,F,][B,,F,] | [C,F,][C,F,] [B,,F,] [F,CE]2 [F,C] | %12
 [F,A,E][F,CE] [F,B,E] [F,A,E]2 [F,A,] | [B,,B,]6 | [E,B,]3 E,2 G, | %15
[M:15/16] B,3 [G,=B,]3/2- [G,B,]3 |[M:3/4] [C,C][C,C] [C,C] [F,B,]2 [F,A,] | %17
[M:5/8] [B,,B,]-[B,,B,]- [B,,B,]3 |] %18
V:3
 x6 | x6 | x6 | x6 |[M:5/8] x5 |[M:1/8] x |[M:3/4] x6 | x6 | x6 | x6 | x6 | EE .E2 z E | x6 | %13
 F3 F B_A | x6 |[M:15/16] x15/2 |[M:3/4] x6 |[M:5/8] x5 |] %18

